X:38
T:Johnie of Airlegreen
Z:Jack Campin - http://www.campin.me.uk
S:Blaikie MS (NLS MS.1578) p14
N:Blaikie #37
M:6/8
L:1/8
V:1 midi program 1 74
V:2 midi program 1 46 bass middle = d transpose -24
Q:3/8=90
K:C
[V:1] G|c2B/G/ A<GG|cAF  GEC    |CEG   G>AB|c3  z2
[V:2] z|c3     c'3 |f3   ecz    |g3    g3  |ceg c2
%
[V:1] G|c2B    AGG |cAF  GE F/D/|CEG   G>AB|c3  z2||
[V:2] z|ceg    fez |f3   ecf    |g3    g2g |c2g c2||
%
[V:1] G|c2d    e2 c|g2e  d2 e   |c>dc  B>AG|A3  c2
[V:2] z|c2g    c'2c|c'2c g3     |e3    g3  |f3  e2
%
[V:1] A|G>AB   cAF |G2E  D2 E/D/|CEG   G>AB|c3  z2|]
[V:2] f|g3     f3  |e2c  g2 g   |c3    G3  |ceg c2|]
W:Transcription (c) Jack Campin 2009, no mirroring or republication without permission

